X:1
T:Title
%%score { ( 1 3 ) | ( 2 4 ) }
L:1/8
Q:1/4=100
M:4/4
K:D
V:1 treble nm="Grand Piano"
V:3 treble 
V:2 bass 
V:4 bass 
V:1
 D3 F A2 A2 | B2 [Gc]2 [Fd]2 [FA]2 | B2 A2 G2 F2 | E2 D2 [CA]4 | z4 B2 z2 | G2 F2 [DF]2 [CE]2 | %6
w: Thomas~B.~Wireback * * *||||||
 [A,E]2 [A,DF]2 [=CFA]3 [B,EG] | [DF]2[K:bass] .[A,CE]2 [F,D]4 | z4[K:treble] [A,CG]2 [A,CE]2 | %9
w: |||
 [G,C]2 [CB]2 A2 F2 | c3 B A2 G2 | F2 E2 [CA]4 | [Dd]3 [Ad] d3 d | d2 d2 d2 A2 | %14
w: |||||
 B3 B [DFA]2[K:bass] [F,D]E | z4 [CE]4 | [F,D]8 |] %17
w: |||
V:2
 D,3 F, A,2 [F,A,D]2 | [G,D]2 [E,G,]2 [D,A,]2 [D,D]2 | [G,D]2 [F,A,D]2 [E,A,C]2 [D,A,D]2 | %3
 [C,A,]2 [B,,^G,B,]2 [A,,A,]4 | [F,A,D]2[K:treble] [A,E]2 .[G,B,G]2[K:bass] [F,D]2 | %5
 [E,A,C]2 [D,A,D]2 [A,,A,]2 [A,,A,]2 | C,2 D,2 ^D,3 E, | A,2 z G, D,4 | A3 ^G[K:bass] A,,2 A,,2 | %9
 A,,2 [A,,G,]2 [D,F,D]2 [D,A,D]2 | C3 B, A,2 G,2 | F,2 E,2 [A,,E,]4 | %12
 [F,A,]3 [F,D][K:treble] [B,DG]3 [B,DG] | [B,DG]2 [B,D^G]2 [A,FA]2 [F,D]2 | %14
 [G,DG]3 [G,DG][K:bass] D,2 z G, | A,,4 z2 G,2 | D,8 |] %17
V:3
 x8 | x8 | x8 | x8 | d2 c2 z C A2 | x8 | x8 | x2[K:bass] x6 | x4[K:treble] x4 | x8 | x8 | x8 | x8 | %13
 x8 | x6[K:bass] x2 | [A,DF]4 A,2 z2 | x8 |] %17
V:4
 x8 | x8 | x8 | x8 | x2[K:treble] x4[K:bass] x2 | x8 | x8 | z2 A,,2 z4 | x4[K:bass] x4 | x8 | x8 | %11
 x8 | x4[K:treble] x4 | x8 | z4[K:bass] z2 B,,2 | z4 A,,4 | x8 |] %17

